X:244
T:Gayton’s Hornpipe TS.244
T:Miss Gayton’s Hp,aka TS.244
M:C
L:1/8
Q:1/2=90
S:Thomas Sands’ MS,1810,Lincolnshire
R:.hornpipe
O:England;Lincolnshire
Z:vmp.Ruairidh Greig, 2011
K:F
cB|Acfef2cB|Acfgf2cB|Acfa gfed|cfag fedc|
Acfef2cB|Acfgf2c2|defd efge|f2a2f2:|
|:fg|agaf gfge|fefd dcBA|BcdB ABcA|B2G2G2fg|
agaf gfge|fefdc2c2|defd efge|f2a2f2:|]

